svg/outline/discover.svg

<svg height="471" viewBox="0 0 750 471" width="750" xmlns="http://www.w3.org/2000/svg"><g fill="#393939"><path d="m52.8768624 28.2035928h644.2462746c13.272418 0 24.030709 10.5212433 24.030709 23.507479v206.7502512s-72.693809 48.019555-156.916691 81.204681c-133.766527 60.459616-327.538017 103.130403-340.803411 103.130403h-170.5568816c-13.2724174 0-24.0307086-10.521243-24.0307086-23.507479v-367.5778562c0-12.9802892 10.7653143-23.507479 24.0307086-23.507479zm-52.8768624 23.507479v367.5778562c0 28.561091 23.6715592 51.711072 52.8768624 51.711072h644.2462746c29.197715 0 52.876863-23.155374 52.876863-51.711072v-367.5778562c0-28.5610909-23.67156-51.7110718-52.876863-51.7110718h-644.2462746c-29.1977145 0-52.8768624 23.1553747-52.8768624 51.7110718z"/><g transform="translate(64.423077 151.359281)"><path d="m.3989226 3.23979415v94.46551245h28.8382949c15.3343412 0 26.4086008-3.3758535 36.1285517-10.9049195 11.5511221-8.9195539 18.3817289-22.3609255 18.3817289-36.2621443 0-27.8790776-22.3272923-47.29844865-54.3577157-47.29844865zm52.0637649 70.96592065c-6.2054817 5.2261868-14.2663875 7.5071689-27.0290314 7.5071689h-5.2994802v-62.4660683h5.2994802c12.7626439 0 20.5055102 2.1313506 27.0290314 7.6385537 6.8306058 5.6750843 10.9396885 14.4669018 10.9396885 23.5178396 0 9.065536-4.1090827 18.1274228-10.9396885 23.8025061z"/><path d="m92.8348913 3.2397951h19.7506277v94.4655125h-19.7506277z" transform="matrix(1 0 0 -1 0 100.945102)"/><path d="m160.879247 61.9328103c-11.851558 4.0911698-15.332777 6.7918527-15.332777 11.8939534 0 5.9488019 6.201179 10.4706214 14.713912 10.4706214 5.916781 0 10.780864-2.2700341 15.925824-7.6495027l10.334514 12.623869c-8.493173 6.9305361-18.651651 10.4742698-29.753293 10.4742698-17.915428 0-31.581335-11.6092869-31.581335-27.0688728 0-13.0143722 6.363132-19.6748401 24.912682-25.9046592 7.731913-2.5437517 11.666914-4.2408023 13.653388-5.3794686 3.945565-2.4050673 5.921476-5.8064681 5.921476-9.7735528 0-7.6531521-6.52352-13.324586-15.334341-13.324586-9.420689 0-17.007861 4.3940841-21.557035 12.5983217l-12.75795-11.4633047c9.099912-12.45963821 20.027082-17.9814397 35.055902-17.9814397 20.523898 0 34.92329 12.7297056 34.92329 31.0177098 0 15.0070383-6.658091 21.8025403-29.124257 29.4666414" transform="matrix(1 0 0 -1 0 101.19448)"/><path d="m196.233238 50.1444705c0-27.7659415 23.368647-49.29476417 53.4435-49.29476417 8.504518 0 15.784604 1.55836711 24.766376 5.50355384v21.68940413c-7.89817-7.3721348-14.892685-10.3465353-23.847075-10.3465353-19.892121 0-34.010246 13.4559708-34.010246 32.5833756 0 18.1383709 14.567996 32.4446921 33.090945 32.4446921 9.42382 0 16.551341-3.1349828 24.766376-10.6275525v21.6784551c-8.67273 4.1021189-15.800252 5.8028188-24.296945 5.8028188-29.922288 0-53.912931-21.9667711-53.912931-49.4334476" transform="matrix(1 0 0 -1 0 100.427624)"/><path d="m431.041248 36.5321526-27.003995 63.451453h-21.574247l42.968546-96.88882744h10.628691l43.743108 96.88882744h-21.409947z" transform="matrix(1 0 0 -1 0 103.078384)"/><path d="m488.734267 3.2397951h56.010895v15.9924229h-36.275249v25.4995577h34.937371v15.9997215h-34.937371v20.9667892h36.275249v16.0070212h-56.010895z" transform="matrix(1 0 0 -1 0 100.945102)"/><path d="m622.944474 31.1298208c0-17.6858242-13.054083-27.89002665-35.833202-27.89002665h-29.284645v94.46551245h19.727821v-37.9482459h2.574044l27.336508 37.9482459h24.289121l-31.874336-39.794929c14.877037-2.8247689 23.064689-12.3173044 23.064689-26.7805568zm-39.619942 15.5982694h-5.770084v-28.6089922h6.083038c12.299081 0 18.984555 4.8101354 18.984555 14.003406 0 9.4961858-6.685474 14.6055862-19.297509 14.6055862z"/><path d="m280.874313 50.4575914v.032846c0 27.7549925 24.116997 50.2217556 53.867161 50.2217556s53.867161-22.4667631 53.867161-50.2217556v-.032846c0-27.7549924-24.116997-50.25460141-53.867161-50.25460141s-53.867161 22.49960901-53.867161 50.25460141" transform="matrix(1 0 0 -1 0 100.915182)"/></g></g></svg>

<svg width="750" height="471" viewBox="0 0 750 471" version="1.1" xmlns="http://www.w3.org/2000/svg" xmlns:xlink="http://www.w3.org/1999/xlink">
    <!-- Generator: Sketch 48.2 (47327) - http://www.bohemiancoding.com/sketch -->
    <desc>Created with Sketch.</desc>
    <defs></defs>
    <g id="Page-1" stroke="none" stroke-width="1" fill="none" fill-rule="evenodd">
        <g id="discover" fill="#393939" fill-rule="nonzero">
            <path d="M52.8768624,28.2035928 L697.123137,28.2035928 C710.395555,28.2035928 721.153846,38.7248361 721.153846,51.7110718 L721.153846,258.461323 C721.153846,258.461323 648.460037,306.480878 564.237155,339.666004 C430.470628,400.12562 236.699138,442.796407 223.433744,442.796407 L52.8768624,442.796407 C39.604445,442.796407 28.8461538,432.275164 28.8461538,419.288928 L28.8461538,51.7110718 C28.8461538,38.7307826 39.6114681,28.2035928 52.8768624,28.2035928 Z M0,51.7110718 L0,419.288928 C0,447.850019 23.6715592,471 52.8768624,471 L697.123137,471 C726.320852,471 750,447.844626 750,419.288928 L750,51.7110718 C750,23.1499809 726.32844,0 697.123137,0 L52.8768624,0 C23.6791479,0 0,23.1553747 0,51.7110718 Z" id="Shape"></path>
            <g id="Group" transform="translate(64.423077, 151.359281)">
                <path d="M0.398922596,3.23979415 L0.398922596,97.7053066 L29.2372175,97.7053066 C44.5715587,97.7053066 55.6458183,94.3294531 65.3657692,86.8003871 C76.9168913,77.8808332 83.7474981,64.4394616 83.7474981,50.5382428 C83.7474981,22.6591652 61.4202058,3.23979415 29.3897824,3.23979415 L0.398922596,3.23979415 Z M52.4626875,74.2057148 C46.2572058,79.4319016 38.1963,81.7128837 25.4336561,81.7128837 L20.1341759,81.7128837 L20.1341759,19.2468154 L25.4336561,19.2468154 C38.1963,19.2468154 45.9391663,21.378166 52.4626875,26.8853691 C59.2932933,32.5604534 63.402376,41.3522709 63.402376,50.4032087 C63.402376,59.4687447 59.2932933,68.5306315 52.4626875,74.2057148 Z" id="path20-path"></path>
                <polygon id="path22" transform="translate(102.710205, 50.472551) scale(-1, 1) rotate(-180.000000) translate(-102.710205, -50.472551) " points="92.8348913 3.2397951 112.585519 3.2397951 112.585519 97.7053076 92.8348913 97.7053076"></polygon>
                <path d="M160.879247,61.9328103 C149.027689,66.0239801 145.54647,68.724663 145.54647,73.8267637 C145.54647,79.7755656 151.747649,84.2973851 160.260382,84.2973851 C166.177163,84.2973851 171.041246,82.027351 176.186206,76.6478824 L186.52072,89.2717514 C178.027547,96.2022875 167.869069,99.7460212 156.767427,99.7460212 C138.851999,99.7460212 125.186092,88.1367343 125.186092,72.6771484 C125.186092,59.6627762 131.549224,53.0023083 150.098774,46.7724892 C157.830687,44.2287375 161.765688,42.5316869 163.752162,41.3930206 C167.697727,38.9879533 169.673638,35.5865525 169.673638,31.6194678 C169.673638,23.9663157 163.150118,18.2948818 154.339297,18.2948818 C144.918608,18.2948818 137.331436,22.6889659 132.782262,30.8932035 L120.024312,19.4298988 C129.124224,6.97026059 140.051394,1.4484591 155.080214,1.4484591 C175.604112,1.4484591 190.003504,14.1781647 190.003504,32.4661689 C190.003504,47.4732072 183.345413,54.2687092 160.879247,61.9328103" id="path24" transform="translate(155.013908, 50.597240) scale(-1, 1) rotate(-180.000000) translate(-155.013908, -50.597240) "></path>
                <path d="M196.233238,50.1444705 C196.233238,22.378529 219.601885,0.84970633 249.676738,0.84970633 C258.181256,0.84970633 265.461342,2.40807344 274.443114,6.35326017 L274.443114,28.0426643 C266.544944,20.6705295 259.550429,17.696129 250.596039,17.696129 C230.703918,17.696129 216.585793,31.1520998 216.585793,50.2795046 C216.585793,68.4178755 231.153789,82.7241967 249.676738,82.7241967 C259.100558,82.7241967 266.228079,79.5892139 274.443114,72.0966442 L274.443114,93.7750993 C265.770384,97.8772182 258.642862,99.5779181 250.146169,99.5779181 C220.223881,99.5779181 196.233238,77.611147 196.233238,50.1444705" id="path26" transform="translate(235.338176, 50.213812) scale(-1, 1) rotate(-180.000000) translate(-235.338176, -50.213812) "></path>
                <polyline id="path28" transform="translate(431.133178, 51.539192) scale(-1, 1) rotate(-180.000000) translate(-431.133178, -51.539192) " points="431.041248 36.5321526 404.037253 99.9836056 382.463006 99.9836056 425.431552 3.09477816 436.060243 3.09477816 479.803351 99.9836056 458.393404 99.9836056 431.041248 36.5321526"></polyline>
                <polyline id="path30" transform="translate(516.739714, 50.472551) scale(-1, 1) rotate(-180.000000) translate(-516.739714, -50.472551) " points="488.734267 3.2397951 544.745162 3.2397951 544.745162 19.232218 508.469913 19.232218 508.469913 44.7317757 543.407284 44.7317757 543.407284 60.7314972 508.469913 60.7314972 508.469913 81.6982864 544.745162 81.6982864 544.745162 97.7053076 488.734267 97.7053076 488.734267 3.2397951"></polyline>
                <path d="M622.944474,31.1298208 C622.944474,13.4439966 609.890391,3.23979415 587.111272,3.23979415 L557.826627,3.23979415 L557.826627,97.7053066 L577.554448,97.7053066 L577.554448,59.7570607 L580.128492,59.7570607 L607.465,97.7053066 L631.754121,97.7053066 L599.879785,57.9103776 C614.756822,55.0856087 622.944474,45.5930732 622.944474,31.1298208 Z M583.324532,46.7280902 L577.554448,46.7280902 L577.554448,18.119098 L583.637486,18.119098 C595.936567,18.119098 602.622041,22.9292334 602.622041,32.122504 C602.622041,41.6186898 595.936567,46.7280902 583.324532,46.7280902 Z" id="path32-path"></path>
                <path d="M280.874313,50.4575914 C280.874313,50.4575914 280.874313,50.4575914 280.874313,50.4904374 C280.874313,78.2454299 304.99131,100.712193 334.741474,100.712193 C364.491638,100.712193 388.608635,78.2454299 388.608635,50.4904374 L388.608635,50.4575914 C388.608635,22.702599 364.491638,0.202989991 334.741474,0.202989991 C304.99131,0.202989991 280.874313,22.702599 280.874313,50.4575914" id="path44" transform="translate(334.741474, 50.457591) scale(-1, 1) rotate(-180.000000) translate(-334.741474, -50.457591) "></path>
            </g>
        </g>
    </g>
</svg>
